poi/svg/2505.svg

<?xml version="1.0" encoding="UTF-8" standalone="no"?>
<svg
   xmlns:dc="http://purl.org/dc/elements/1.1/"
   xmlns:cc="http://creativecommons.org/ns#"
   xmlns:rdf="http://www.w3.org/1999/02/22-rdf-syntax-ns#"
   xmlns:svg="http://www.w3.org/2000/svg"
   xmlns="http://www.w3.org/2000/svg"
   xmlns:sodipodi="http://sodipodi.sourceforge.net/DTD/sodipodi-0.dtd"
   xmlns:inkscape="http://www.inkscape.org/namespaces/inkscape"
   inkscape:version="1.0 (4035a4fb49, 2020-05-01)"
   sodipodi:docname="2505.svg"
   id="svg20"
   version="1.2"
   viewBox="0 0 42.519639 42.519639"
   height="14.999999mm"
   width="14.999999mm">
  <metadata
     id="metadata24">
    <rdf:RDF>
      <cc:Work
         rdf:about="">
        <dc:format>image/svg+xml</dc:format>
        <dc:type
           rdf:resource="http://purl.org/dc/dcmitype/StillImage" />
        <dc:title>Qt SVG Document</dc:title>
      </cc:Work>
    </rdf:RDF>
  </metadata>
  <sodipodi:namedview
     inkscape:current-layer="svg20"
     inkscape:window-maximized="0"
     inkscape:window-y="0"
     inkscape:window-x="0"
     inkscape:cy="28.346482"
     inkscape:cx="28.346482"
     inkscape:zoom="5.8410537"
     showgrid="false"
     id="namedview22"
     inkscape:window-height="480"
     inkscape:window-width="1034"
     inkscape:pageshadow="2"
     inkscape:pageopacity="0"
     guidetolerance="10"
     gridtolerance="10"
     objecttolerance="10"
     borderopacity="1"
     bordercolor="#666666"
     pagecolor="#ffffff" />
  <title
     id="title2">Qt SVG Document</title>
  <desc
     id="desc4">Generated with Qt</desc>
  <defs
     id="defs6" />
  <g
     transform="translate(5.25984,5.25984)"
     id="g18"
     stroke-linejoin="bevel"
     stroke-linecap="square"
     fill-rule="evenodd"
     stroke-width="1"
     stroke="#000000"
     fill="none">
    <g
       id="g10"
       font-style="normal"
       font-weight="400"
       font-size="7.8px"
       font-family="'MS Shell Dlg 2'"
       stroke="none"
       fill-opacity="1"
       fill="#489174">
      <path
         id="path8"
         d="M 37.2598,16 C 37.2598,27.7415 27.7415,37.2598 16,37.2598 4.25851,37.2598 -5.25984,27.7415 -5.25984,16 -5.25984,4.25851 4.25851,-5.25984 16,-5.25984 27.7415,-5.25984 37.2598,4.25851 37.2598,16"
         fill-rule="evenodd"
         vector-effect="non-scaling-stroke" />
    </g>
    <g
       id="g14"
       font-style="normal"
       font-weight="400"
       font-size="7.8px"
       font-family="'MS Shell Dlg 2'"
       transform="translate(15.4331,10.8976)"
       stroke="none"
       fill-opacity="0.94902"
       fill="#ffffff">
      <path
         id="path12"
         d="m 12.6099,-7.96289 c 0.3359,0 0.6193,0.11898 0.8503,0.35693 0.231,0.23796 0.3464,0.51791 0.3464,0.83985 V 17.5474 c 0,0.3359 -0.1154,0.6193 -0.3464,0.8503 -0.231,0.231 -0.5144,0.3464 -0.8503,0.3464 -0.126,0 -0.21,-0.007 -0.252,-0.021 L 6.10107,17.9043 C 5.9891,17.8903 5.88761,17.8378 5.79663,17.7468 5.70565,17.6558 5.66016,17.5474 5.66016,17.4214 c 0,-0.14 0.04549,-0.2555 0.13647,-0.3464 0.09098,-0.091 0.20646,-0.1365 0.34644,-0.1365 H 10.5522 V 15.9307 H 6.14307 c -0.13998,0 -0.25546,-0.049 -0.34644,-0.147 -0.09098,-0.098 -0.13647,-0.21 -0.13647,-0.3359 0,-0.14 0.04549,-0.2555 0.13647,-0.3465 0.09098,-0.091 0.20646,-0.1365 0.34644,-0.1365 H 10.5522 V 13.957 H 6.14307 c -0.13998,0 -0.25546,-0.0455 -0.34644,-0.1364 -0.09098,-0.091 -0.13647,-0.2065 -0.13647,-0.3465 0,-0.14 0.04549,-0.2554 0.13647,-0.3464 0.09098,-0.091 0.20646,-0.1365 0.34644,-0.1365 H 10.5522 V 11.9834 H 6.14307 c -0.13998,0 -0.25546,-0.0455 -0.34644,-0.1365 -0.09098,-0.091 -0.13647,-0.2064 -0.13647,-0.3464 0,-0.14 0.04549,-0.2555 0.13647,-0.3464 0.09098,-0.091 0.20646,-0.1365 0.34644,-0.1365 H 10.5522 V 10.0098 H 6.14307 C 6.00309,10.0098 5.88761,9.96427 5.79663,9.87329 5.70565,9.78231 5.66016,9.66683 5.66016,9.52686 5.66016,9.38688 5.70565,9.2714 5.79663,9.18042 5.88761,9.08944 6.00309,9.04395 6.14307,9.04395 H 10.5522 V 8.05713 H 6.14307 C 6.00309,8.05713 5.88761,8.00814 5.79663,7.91016 5.70565,7.81217 5.66016,7.7002 5.66016,7.57422 5.66016,7.42025 5.70565,7.30127 5.79663,7.21729 5.88761,7.1333 6.00309,7.09131 6.14307,7.09131 H 10.5522 V 6.0835 H 6.14307 C 6.00309,6.0835 5.88761,6.03451 5.79663,5.93652 5.70565,5.83854 5.66016,5.72656 5.66016,5.60059 5.66016,5.44661 5.70565,5.32764 5.79663,5.24365 5.88761,5.15967 6.00309,5.11768 6.14307,5.11768 H 10.5522 V 4.08887 H 6.14307 C 6.00309,4.08887 5.88761,4.04338 5.79663,3.95239 5.70565,3.86141 5.66016,3.75293 5.66016,3.62695 5.66016,3.47298 5.70565,3.354 5.79663,3.27002 5.88761,3.18604 6.00309,3.14404 6.14307,3.14404 H 10.5522 V 2.11523 H 6.14307 C 6.00309,2.11523 5.88761,2.06974 5.79663,1.97876 5.70565,1.88778 5.66016,1.7723 5.66016,1.63232 5.66016,1.50635 5.70565,1.39787 5.79663,1.30688 5.88761,1.2159 6.00309,1.17041 6.14307,1.17041 H 10.5522 V 0.141602 H 6.14307 C 6.00309,0.141602 5.88761,0.09611 5.79663,0.00512695 5.70565,-0.0858561 5.66016,-0.201335 5.66016,-0.341309 c 0,-0.125976 0.04549,-0.237955 0.13647,-0.335937 0.09098,-0.097982 0.20646,-0.146973 0.34644,-0.146973 H 10.5522 V -1.83203 H 6.14307 c -0.13998,0 -0.25546,-0.04549 -0.34644,-0.13648 -0.09098,-0.09098 -0.13647,-0.20646 -0.13647,-0.34643 0,-0.12598 0.04549,-0.23796 0.13647,-0.33594 0.09098,-0.09798 0.20646,-0.14697 0.34644,-0.14697 H 10.5522 V -3.80566 H 6.14307 c -0.13998,0 -0.25546,-0.0455 -0.34644,-0.13648 -0.09098,-0.09098 -0.13647,-0.20646 -0.13647,-0.34643 0,-0.12598 0.04549,-0.23796 0.13647,-0.33594 0.09098,-0.09798 0.20646,-0.14697 0.34644,-0.14697 H 10.5522 V -5.7793 H 6.14307 c -0.13998,0 -0.25546,-0.04199 -0.34644,-0.12597 -0.09098,-0.08399 -0.13647,-0.20297 -0.13647,-0.35694 0,-0.26595 0.13297,-0.41992 0.39892,-0.46191 l 2.01563,-0.39893 4.28319,-0.81884 c 0.042,0 0.084,-0.0035 0.126,-0.0105 0.042,-0.007 0.084,-0.0105 0.126,-0.0105 M 4.56836,14.062 c 0.16797,0.5319 0.25545,1.0533 0.26245,1.5642 0.007,0.5109 -0.05249,0.9798 -0.17847,1.4068 -0.12597,0.4269 -0.32194,0.7943 -0.58789,1.1023 -0.26595,0.3079 -0.58789,0.5249 -0.96582,0.6508 -0.23795,0.07 -0.45491,0.105 -0.65088,0.105 -0.60188,0 -1.18628,-0.2204 -1.75317,-0.6614 -0.566894,-0.4409 -1.01831,-1.0393 -1.354248,-1.7951 l -0.020996,-0.042 c 0,-0.028 -0.006999,-0.042 -0.020996,-0.042 L -4.10303,8.68701 -5.61475,7.46924 -11.5776,-4.91846 c -0.042,-0.15397 -0.07,-0.32894 -0.084,-0.5249 -0.014,-0.16797 -0.021,-0.36393 -0.021,-0.58789 0,-0.22396 0.035,-0.47591 0.105,-0.75586 0.056,-0.26595 0.1329,-0.49341 0.2309,-0.68237 0.098,-0.18897 0.189,-0.33944 0.273,-0.45142 0.098,-0.13997 0.2029,-0.25195 0.3149,-0.33594 l 9.931163,20.78614 c 0.279948,-0.6859 0.7418623,-1.1478 1.385742,-1.3857 0.251954,-0.07 0.475915,-0.105 0.671875,-0.105 0.33594,0 0.67188,0.0735 1.00781,0.2204 0.33594,0.147 0.65088,0.3535 0.94483,0.6194 0.29394,0.266 0.55989,0.5844 0.79785,0.9553 0.23795,0.371 0.43392,0.7804 0.58789,1.2283 m -1.0708,2.6035 C 3.59554,16.3436 3.63403,15.9902 3.61304,15.6052 3.59204,15.2203 3.51855,14.8389 3.39258,14.4609 3.15462,13.7611 2.80469,13.2012 2.34277,12.7813 c -0.37793,-0.35 -0.74886,-0.525 -1.11279,-0.525 -0.06999,0 -0.16097,0.014 -0.272949,0.042 -0.237955,0.084 -0.416422,0.2275 -0.5354,0.4305 -0.118978,0.2029 -0.199463,0.3814 -0.241455,0.5354 -0.097982,0.3219 -0.1364748,0.6753 -0.1154787,1.0603 0.0209961,0.3849 0.0874837,0.7733 0.1994627,1.1652 0.111979,0.322 0.258952,0.6299 0.440918,0.9239 0.181966,0.2939 0.391932,0.5389 0.629882,0.7348 0.37793,0.35 0.74886,0.5249 1.11279,0.5249 0.06999,0 0.16097,-0.014 0.27295,-0.042 0.23796,-0.0699 0.41643,-0.2099 0.5354,-0.4199 0.11898,-0.2099 0.19947,-0.3919 0.24146,-0.5459 m -9.63721,-8.29343 0.75586,1.51172 -2.87646,6.46681 v 0.042 l -0.042,0.042 c -0.33593,0.7558 -0.78735,1.3542 -1.35424,1.7951 -0.56691,0.441 -1.14431,0.6614 -1.73221,0.6614 -0.1959,0 -0.4199,-0.035 -0.6718,-0.105 -0.378,-0.1259 -0.6964,-0.3429 -0.9554,-0.6508 -0.2589,-0.308 -0.4549,-0.6754 -0.5879,-1.1023 -0.1329,-0.427 -0.1924,-0.8959 -0.1784,-1.4068 0.014,-0.5109 0.105,-1.0323 0.2729,-1.5642 0.154,-0.4479 0.35,-0.8573 0.5879,-1.2283 0.238,-0.3709 0.5039,-0.6893 0.7979,-0.9553 0.2939,-0.2659 0.6089,-0.4724 0.9448,-0.6194 0.3359,-0.1469 0.6719,-0.2204 1.0078,-0.2204 0.18197,0 0.39893,0.035 0.65088,0.105 0.62988,0.2239 1.0988,0.6858 1.40674,1.3857 l 1.97363,-4.15723 m -3.08642,7.11763 c 0.26595,-0.8118 0.30094,-1.5537 0.10498,-2.2255 -0.05599,-0.154 -0.13998,-0.3325 -0.25196,-0.5354 -0.11198,-0.203 -0.28694,-0.3465 -0.5249,-0.4305 -0.11195,-0.028 -0.20295,-0.042 -0.27295,-0.042 -0.3639,0 -0.7349,0.175 -1.1128,0.525 -0.4759,0.4339 -0.8328,0.9938 -1.0708,1.6796 -0.126,0.378 -0.196,0.7594 -0.21,1.1443 -0.014,0.385 0.028,0.7384 0.126,1.0603 0.042,0.154 0.1225,0.336 0.2415,0.5459 0.119,0.21 0.2904,0.35 0.5144,0.4199 0.14,0.028 0.2379,0.042 0.2939,0.042 0.35,0 0.7209,-0.1749 1.1128,-0.5249 0.238,-0.1959 0.44444,-0.4409 0.61941,-0.7348 0.17496,-0.294 0.31844,-0.6019 0.43042,-0.9239 M 2.63672,-6.78711 c 0.05599,0.27995 0.08748,0.5319 0.09448,0.75586 0.007,0.22396 0.0035,0.41992 -0.0105,0.58789 -0.01399,0.19596 -0.04199,0.37093 -0.08398,0.5249 L -2.78027,6.33545 -3.97705,3.85791 1.79688,-8.25684 c 0.09798,0.08399 0.20296,0.19597 0.31494,0.33594 0.08398,0.11198 0.17496,0.26245 0.27295,0.45142 0.09798,0.18896 0.18196,0.41642 0.25195,0.68237"
         fill-rule="evenodd"
         vector-effect="none" />
    </g>
    <g
       id="g16"
       font-style="normal"
       font-weight="400"
       font-size="7.8px"
       font-family="'MS Shell Dlg 2'"
       stroke="none"
       fill-opacity="1"
       fill="#489174" />
  </g>
</svg>

<?xml version="1.0" encoding="UTF-8" standalone="no"?>
<svg width="11.2889mm" height="11.2889mm"
 viewBox="0 0 32 32"
 xmlns="http://www.w3.org/2000/svg" xmlns:xlink="http://www.w3.org/1999/xlink"  version="1.2" baseProfile="tiny">
<title>Qt SVG Document</title>
<desc>Generated with Qt</desc>
<defs>
</defs>
<g fill="none" stroke="black" stroke-width="1" fill-rule="evenodd" stroke-linecap="square" stroke-linejoin="bevel" >

<g fill="#489174" fill-opacity="1" stroke="none" transform="matrix(1,0,0,1,0,0)"
font-family="MS Shell Dlg 2" font-size="7.8" font-weight="400" font-style="normal" 
>
<path vector-effect="non-scaling-stroke" fill-rule="evenodd" d="M37.2598,16 C37.2598,27.7415 27.7415,37.2598 16,37.2598 C4.25851,37.2598 -5.25984,27.7415 -5.25984,16 C-5.25984,4.25851 4.25851,-5.25984 16,-5.25984 C27.7415,-5.25984 37.2598,4.25851 37.2598,16 "/>
</g>

<g fill="#ffffff" fill-opacity="0.94902" stroke="none" transform="matrix(1,0,0,1,15.4331,10.8976)"
font-family="MS Shell Dlg 2" font-size="7.8" font-weight="400" font-style="normal" 
>
<path vector-effect="none" fill-rule="evenodd" d="M12.6099,-7.96289 C12.9458,-7.96289 13.2292,-7.84391 13.4602,-7.60596 C13.6912,-7.368 13.8066,-7.08805 13.8066,-6.76611 L13.8066,17.5474 C13.8066,17.8833 13.6912,18.1667 13.4602,18.3977 C13.2292,18.6287 12.9458,18.7441 12.6099,18.7441 C12.4839,18.7441 12.3999,18.7371 12.3579,18.7231 L6.10107,17.9043 C5.9891,17.8903 5.88761,17.8378 5.79663,17.7468 C5.70565,17.6558 5.66016,17.5474 5.66016,17.4214 C5.66016,17.2814 5.70565,17.1659 5.79663,17.075 C5.88761,16.984 6.00309,16.9385 6.14307,16.9385 L10.5522,16.9385 L10.5522,15.9307 L6.14307,15.9307 C6.00309,15.9307 5.88761,15.8817 5.79663,15.7837 C5.70565,15.6857 5.66016,15.5737 5.66016,15.4478 C5.66016,15.3078 5.70565,15.1923 5.79663,15.1013 C5.88761,15.0103 6.00309,14.9648 6.14307,14.9648 L10.5522,14.9648 L10.5522,13.957 L6.14307,13.957 C6.00309,13.957 5.88761,13.9115 5.79663,13.8206 C5.70565,13.7296 5.66016,13.6141 5.66016,13.4741 C5.66016,13.3341 5.70565,13.2187 5.79663,13.1277 C5.88761,13.0367 6.00309,12.9912 6.14307,12.9912 L10.5522,12.9912 L10.5522,11.9834 L6.14307,11.9834 C6.00309,11.9834 5.88761,11.9379 5.79663,11.8469 C5.70565,11.7559 5.66016,11.6405 5.66016,11.5005 C5.66016,11.3605 5.70565,11.245 5.79663,11.1541 C5.88761,11.0631 6.00309,11.0176 6.14307,11.0176 L10.5522,11.0176 L10.5522,10.0098 L6.14307,10.0098 C6.00309,10.0098 5.88761,9.96427 5.79663,9.87329 C5.70565,9.78231 5.66016,9.66683 5.66016,9.52686 C5.66016,9.38688 5.70565,9.2714 5.79663,9.18042 C5.88761,9.08944 6.00309,9.04395 6.14307,9.04395 L10.5522,9.04395 L10.5522,8.05713 L6.14307,8.05713 C6.00309,8.05713 5.88761,8.00814 5.79663,7.91016 C5.70565,7.81217 5.66016,7.7002 5.66016,7.57422 C5.66016,7.42025 5.70565,7.30127 5.79663,7.21729 C5.88761,7.1333 6.00309,7.09131 6.14307,7.09131 L10.5522,7.09131 L10.5522,6.0835 L6.14307,6.0835 C6.00309,6.0835 5.88761,6.03451 5.79663,5.93652 C5.70565,5.83854 5.66016,5.72656 5.66016,5.60059 C5.66016,5.44661 5.70565,5.32764 5.79663,5.24365 C5.88761,5.15967 6.00309,5.11768 6.14307,5.11768 L10.5522,5.11768 L10.5522,4.08887 L6.14307,4.08887 C6.00309,4.08887 5.88761,4.04338 5.79663,3.95239 C5.70565,3.86141 5.66016,3.75293 5.66016,3.62695 C5.66016,3.47298 5.70565,3.354 5.79663,3.27002 C5.88761,3.18604 6.00309,3.14404 6.14307,3.14404 L10.5522,3.14404 L10.5522,2.11523 L6.14307,2.11523 C6.00309,2.11523 5.88761,2.06974 5.79663,1.97876 C5.70565,1.88778 5.66016,1.7723 5.66016,1.63232 C5.66016,1.50635 5.70565,1.39787 5.79663,1.30688 C5.88761,1.2159 6.00309,1.17041 6.14307,1.17041 L10.5522,1.17041 L10.5522,0.141602 L6.14307,0.141602 C6.00309,0.141602 5.88761,0.09611 5.79663,0.00512695 C5.70565,-0.0858561 5.66016,-0.201335 5.66016,-0.341309 C5.66016,-0.467285 5.70565,-0.579264 5.79663,-0.677246 C5.88761,-0.775228 6.00309,-0.824219 6.14307,-0.824219 L10.5522,-0.824219 L10.5522,-1.83203 L6.14307,-1.83203 C6.00309,-1.83203 5.88761,-1.87752 5.79663,-1.96851 C5.70565,-2.05949 5.66016,-2.17497 5.66016,-2.31494 C5.66016,-2.44092 5.70565,-2.5529 5.79663,-2.65088 C5.88761,-2.74886 6.00309,-2.79785 6.14307,-2.79785 L10.5522,-2.79785 L10.5522,-3.80566 L6.14307,-3.80566 C6.00309,-3.80566 5.88761,-3.85116 5.79663,-3.94214 C5.70565,-4.03312 5.66016,-4.1486 5.66016,-4.28857 C5.66016,-4.41455 5.70565,-4.52653 5.79663,-4.62451 C5.88761,-4.72249 6.00309,-4.77148 6.14307,-4.77148 L10.5522,-4.77148 L10.5522,-5.7793 L6.14307,-5.7793 C6.00309,-5.7793 5.88761,-5.82129 5.79663,-5.90527 C5.70565,-5.98926 5.66016,-6.10824 5.66016,-6.26221 C5.66016,-6.52816 5.79313,-6.68213 6.05908,-6.72412 L8.07471,-7.12305 L12.3579,-7.94189 C12.3999,-7.94189 12.4419,-7.94539 12.4839,-7.95239 C12.5259,-7.95939 12.5679,-7.96289 12.6099,-7.96289 M4.56836,14.062 C4.73633,14.5939 4.82381,15.1153 4.83081,15.6262 C4.83781,16.1371 4.77832,16.606 4.65234,17.033 C4.52637,17.4599 4.3304,17.8273 4.06445,18.1353 C3.7985,18.4432 3.47656,18.6602 3.09863,18.7861 C2.86068,18.8561 2.64372,18.8911 2.44775,18.8911 C1.84587,18.8911 1.26147,18.6707 0.69458,18.2297 C0.127686,17.7888 -0.32373,17.1904 -0.659668,16.4346 L-0.680664,16.3926 C-0.680664,16.3646 -0.687663,16.3506 -0.70166,16.3506 L-4.10303,8.68701 L-5.61475,7.46924 L-11.5776,-4.91846 C-11.6196,-5.07243 -11.6476,-5.2474 -11.6616,-5.44336 C-11.6756,-5.61133 -11.6826,-5.80729 -11.6826,-6.03125 C-11.6826,-6.25521 -11.6476,-6.50716 -11.5776,-6.78711 C-11.5216,-7.05306 -11.4447,-7.28052 -11.3467,-7.46948 C-11.2487,-7.65845 -11.1577,-7.80892 -11.0737,-7.9209 C-10.9757,-8.06087 -10.8708,-8.17285 -10.7588,-8.25684 L-0.827637,12.5293 C-0.547689,11.8434 -0.0857747,11.3815 0.558105,11.1436 C0.810059,11.0736 1.03402,11.0386 1.22998,11.0386 C1.56592,11.0386 1.90186,11.1121 2.23779,11.259 C2.57373,11.406 2.88867,11.6125 3.18262,11.8784 C3.47656,12.1444 3.74251,12.4628 3.98047,12.8337 C4.21842,13.2047 4.41439,13.6141 4.56836,14.062 M3.49756,16.6655 C3.59554,16.3436 3.63403,15.9902 3.61304,15.6052 C3.59204,15.2203 3.51855,14.8389 3.39258,14.4609 C3.15462,13.7611 2.80469,13.2012 2.34277,12.7813 C1.96484,12.4313 1.59391,12.2563 1.22998,12.2563 C1.15999,12.2563 1.06901,12.2703 0.957031,12.2983 C0.719076,12.3823 0.540609,12.5258 0.421631,12.7288 C0.302653,12.9317 0.222168,13.1102 0.180176,13.2642 C0.082194,13.5861 0.0437012,13.9395 0.0646973,14.3245 C0.0856934,14.7094 0.152181,15.0978 0.26416,15.4897 C0.376139,15.8117 0.523112,16.1196 0.705078,16.4136 C0.887044,16.7075 1.09701,16.9525 1.33496,17.1484 C1.71289,17.4984 2.08382,17.6733 2.44775,17.6733 C2.51774,17.6733 2.60872,17.6593 2.7207,17.6313 C2.95866,17.5614 3.13713,17.4214 3.2561,17.2114 C3.37508,17.0015 3.45557,16.8195 3.49756,16.6655 M-6.13965,8.37207 L-5.38379,9.88379 L-8.26025,16.3506 L-8.26025,16.3926 L-8.30225,16.4346 C-8.63818,17.1904 -9.0896,17.7888 -9.65649,18.2297 C-10.2234,18.6707 -10.8008,18.8911 -11.3887,18.8911 C-11.5846,18.8911 -11.8086,18.8561 -12.0605,18.7861 C-12.4385,18.6602 -12.7569,18.4432 -13.0159,18.1353 C-13.2748,17.8273 -13.4708,17.4599 -13.6038,17.033 C-13.7367,16.606 -13.7962,16.1371 -13.7822,15.6262 C-13.7682,15.1153 -13.6772,14.5939 -13.5093,14.062 C-13.3553,13.6141 -13.1593,13.2047 -12.9214,12.8337 C-12.6834,12.4628 -12.4175,12.1444 -12.1235,11.8784 C-11.8296,11.6125 -11.5146,11.406 -11.1787,11.259 C-10.8428,11.1121 -10.5068,11.0386 -10.1709,11.0386 C-9.98893,11.0386 -9.77197,11.0736 -9.52002,11.1436 C-8.89014,11.3675 -8.42122,11.8294 -8.11328,12.5293 L-6.13965,8.37207 M-9.22607,15.4897 C-8.96012,14.6779 -8.92513,13.936 -9.12109,13.2642 C-9.17708,13.1102 -9.26107,12.9317 -9.37305,12.7288 C-9.48503,12.5258 -9.65999,12.3823 -9.89795,12.2983 C-10.0099,12.2703 -10.1009,12.2563 -10.1709,12.2563 C-10.5348,12.2563 -10.9058,12.4313 -11.2837,12.7813 C-11.7596,13.2152 -12.1165,13.7751 -12.3545,14.4609 C-12.4805,14.8389 -12.5505,15.2203 -12.5645,15.6052 C-12.5785,15.9902 -12.5365,16.3436 -12.4385,16.6655 C-12.3965,16.8195 -12.316,17.0015 -12.197,17.2114 C-12.078,17.4214 -11.9066,17.5614 -11.6826,17.6313 C-11.5426,17.6593 -11.4447,17.6733 -11.3887,17.6733 C-11.0387,17.6733 -10.6678,17.4984 -10.2759,17.1484 C-10.0379,16.9525 -9.83146,16.7075 -9.65649,16.4136 C-9.48153,16.1196 -9.33805,15.8117 -9.22607,15.4897 M2.63672,-6.78711 C2.69271,-6.50716 2.7242,-6.25521 2.7312,-6.03125 C2.7382,-5.80729 2.7347,-5.61133 2.7207,-5.44336 C2.70671,-5.2474 2.67871,-5.07243 2.63672,-4.91846 L-2.78027,6.33545 L-3.97705,3.85791 L1.79688,-8.25684 C1.89486,-8.17285 1.99984,-8.06087 2.11182,-7.9209 C2.1958,-7.80892 2.28678,-7.65845 2.38477,-7.46948 C2.48275,-7.28052 2.56673,-7.05306 2.63672,-6.78711 "/>
</g>

<g fill="#489174" fill-opacity="1" stroke="none" transform="matrix(1,0,0,1,0,0)"
font-family="MS Shell Dlg 2" font-size="7.8" font-weight="400" font-style="normal" 
>
</g>
</g>
</svg>
